X: 72
T: Drowsy Maggie
R:reel
M:C|
K:Edor
"Em" ~E2BE  dEBE| ~E2BE "D" AFDF|"Em"~E2BE dEBE\
|1 "Em(G)"BABc "D" dAFD:|2 "Em(G)" BABc "D" dAFA||
"D" d2fd "A" c2ec|"D" defg "A" afge|"D" d2fd "A" cdec|"G" BABc "D" dAFA|
"D" d2fd "A" c2ec|"D" defg  "A"afge|afge "D" fdec|"G" BABc "D" dAFD|]


